dist/img/icons/forget/shield.svg

<svg width="39" height="40" viewBox="0 0 39 40" fill="none" xmlns="http://www.w3.org/2000/svg">
<g clip-path="url(#clip0)">
<path d="M19.0259 0.3898L19.026 0.389782C19.1861 0.337946 19.3511 0.342202 19.5001 0.391518C19.6481 0.341709 19.8136 0.33752 19.9737 0.3898L19.0259 0.3898ZM19.0259 0.3898L3.68723 5.3747M19.0259 0.3898L3.68723 5.3747M4.68148 17.4112L4.68144 17.4112C4.67006 17.7357 4.57494 21.5954 6.38143 26.0097C8.1866 30.4208 11.8906 35.3861 19.4793 37.9324H19.5212C27.1233 35.3802 30.8233 30.2966 32.6232 25.8308C34.4244 21.3619 34.3223 17.5117 34.3196 17.4387L34.3195 17.4368H34.3196L34.3187 6.64945L19.5047 1.83503L19.5044 1.83491C19.5029 1.83444 19.5015 1.83393 19.5 1.83341L4.68148 17.4112ZM4.68148 17.4112V17.4095V6.64907L19.4945 1.83521C19.4946 1.83518 19.4947 1.83515 19.4948 1.83512L4.68148 17.4112ZM3.68723 5.3747C3.37404 5.47622 3.16203 5.76767 3.16203 6.09737L3.16295 17.3817L3.68723 5.3747ZM35.3128 5.37471L19.9738 0.389823L19.1332 39.3661L19.1172 39.4135C19.1173 39.4135 19.1173 39.4135 19.1174 39.4136C19.1946 39.4396 19.2759 39.4523 19.3565 39.4523H19.6446C19.7252 39.4523 19.8064 39.4397 19.8836 39.4136C28.0788 36.7034 32.0699 31.2361 34.0104 26.4296C35.9423 21.6442 35.8419 17.5136 35.838 17.4085V6.09737C35.838 5.76821 35.626 5.47631 35.3128 5.37471Z" fill="#236EFF" stroke="white" stroke-width="0.1"/>
<path d="M31.3714 8.06918L31.3713 8.06916L19.8603 4.19557L19.8603 4.19557L19.86 4.1955C19.7543 4.16045 19.6456 4.15184 19.5454 4.15975C19.4452 4.15239 19.3379 4.16042 19.2312 4.19546L19.2312 4.19546L19.2309 4.19557L7.72111 8.06908L7.72103 8.06911C7.41265 8.17345 7.20391 8.46293 7.20391 8.78936L7.20482 17.6037H7.2048L7.20484 17.6052C7.20694 17.6722 7.35237 20.8627 8.93183 24.5931C10.5116 28.3242 13.5275 32.5982 19.2712 34.8232L19.2713 34.8233C19.3596 34.8572 19.453 34.8743 19.5456 34.8743C19.6381 34.8743 19.7316 34.8572 19.8198 34.8233L19.8199 34.8232C25.5639 32.5982 28.5801 28.3242 30.1602 24.59C31.7401 20.8565 31.8859 17.6596 31.8884 17.5801H31.8885V17.5785V8.78936V8.78931C31.8881 8.46304 31.6798 8.17354 31.3714 8.06918ZM19.5456 33.2984C14.4123 31.2118 11.708 27.309 10.286 23.9122C8.87032 20.5307 8.7268 17.6535 8.72335 17.5779V9.33533L19.5456 5.69307L30.3691 9.33533L30.3695 17.5523C30.366 17.6342 30.2233 20.5203 28.8057 23.9089C27.3833 27.3089 24.6789 31.2118 19.5456 33.2984Z" fill="white" stroke="#236EFF" stroke-width="0.1"/>
<path d="M18.4576 24.5146L26.6359 14.7192L18.4576 24.5146ZM18.4576 24.5146L13.1976 18.9909L13.1976 18.9909C12.9062 18.6858 12.4269 18.6764 12.1237 18.964L12.1236 18.964C11.8195 19.2535 11.8076 19.7348 12.0968 20.0381L17.9443 26.179L17.9444 26.1791C18.0883 26.3296 18.287 26.4151 18.495 26.4151L18.4576 24.5146ZM18.5214 26.4141C18.7376 26.407 18.9398 26.3074 19.0782 26.1421L19.0783 26.1421L27.8026 15.6925L27.8026 15.6925C28.0712 15.3705 28.0283 14.8916 27.7062 14.6228C27.3831 14.3527 26.9037 14.398 26.6359 14.7192L18.5214 26.4141Z" fill="#236EFF" stroke="white" stroke-width="0.1"/>
</g>
<defs>
<clipPath id="clip0">
<rect width="39" height="39" fill="white" transform="translate(0 0.402344)"/>
</clipPath>
</defs>
</svg>

<svg width="39" height="40" fill="none" xmlns="http://www.w3.org/2000/svg"><g clip-path="url(#clip0)" stroke-width=".1"><path d="M19.026.39h0a.76.76 0 01.474.002.751.751 0 01.474-.002h-.948zm0 0L3.687 5.375M19.026.39L3.687 5.375m.994 12.036h0c-.01.325-.106 4.184 1.7 8.599 1.806 4.41 5.51 9.376 13.098 11.922h.042c7.602-2.552 11.302-7.635 13.102-12.101 1.801-4.47 1.7-8.32 1.697-8.392v-.002h0l-.001-10.788-14.814-4.814h0l-.005-.002L4.681 17.411zm0 0V6.65l14.813-4.814s0 0 0 0L4.682 17.411zM3.687 5.375a.76.76 0 00-.525.722l.001 11.285.524-12.007zm31.626 0L19.973.39l-.84 38.976-.016.047s0 0 0 0a.751.751 0 00.24.04h.288c.08 0 .161-.013.239-.04 8.195-2.71 12.186-8.177 14.126-12.983 1.932-4.786 1.832-8.916 1.828-9.021V6.097a.76.76 0 00-.525-.722z" fill="#236EFF" stroke="#fff"/><path d="M31.371 8.07h0l-11.51-3.874h0-.001a.802.802 0 00-.315-.036.812.812 0 00-.314.035h0L7.72 8.07h0a.76.76 0 00-.517.72v8.815h0v.001c.003.067.148 3.258 1.728 6.988 1.58 3.731 4.595 8.005 10.34 10.23h0a.767.767 0 00.548 0h0c5.744-2.225 8.76-6.499 10.34-10.233 1.58-3.733 1.726-6.93 1.728-7.01h0V8.79v0a.761.761 0 00-.517-.72zM19.546 33.297c-5.134-2.086-7.838-5.989-9.26-9.386-1.416-3.381-1.56-6.258-1.563-6.334V9.335l10.823-3.642 10.823 3.642v8.217c-.003.082-.146 2.968-1.563 6.357-1.423 3.4-4.127 7.303-9.26 9.39z" fill="#fff" stroke="#236EFF"/><path d="M18.458 24.515l8.178-9.796-8.178 9.796zm0 0l-5.26-5.524h0a.76.76 0 00-1.074-.027h0a.76.76 0 00-.027 1.074l5.847 6.141h0c.144.15.343.236.551.236l-.037-1.9zm.063 1.9a.76.76 0 00.557-.273h0l8.725-10.45h0a.76.76 0 10-1.167-.973L18.52 26.414z" fill="#236EFF" stroke="#fff"/></g><defs><clipPath id="clip0"><path fill="#fff" transform="translate(0 .402)" d="M0 0h39v39H0z"/></clipPath></defs></svg>
